X: 3172
T: COUNTRY LASSES
Q: "Reel."
R: Reel.
%R: reel
B: James Kerr "Merry Melodies" v.3 p.20 #172
Z: 2016 John Chambers <jc:trillian.mit.edu>
M: C
L: 1/8
K: Bb
F |:\
B2(df) bfdf | gabg fdBd |\
efge defd |[1 cdcB AFGA :|[2 cBcd B3 ||
|: f |\
b2(ba) bfdf | b2(ba) bfdf |\
efge defe |[1 cdcB Acc :|[2 cBcd B3 |]

%%sep 1 1 500
%%sep 1 1 500

